X:131
T:Reels simple chords 463
M:3/4
L:1/8
K:A
cd [e2A,2C2E2] ef | ed cB [A2A,2C2E2] | A2 E2>E2 | [F2D,2F,2A,2] F2 A2 | A2 [F2A,2C2E2] E4 |
cd [e2A,2C2E2] | ef ed cB | [A2A,2C2E2] A2 A2 | AB2< [c2B,2D2F2]B |
c2 d2 [c2B,2D2F2] | B4 cd | [e2A,2C2E2] ef ed | cB [A2A,2C2E2] A2 |
E2>E2 [F2D,2F,2A,2] | F2 A2 A2 | [F2A,2C2E2] E4 | E2 [F2D,2F,2A,2] F2 |
A2 B2 [c2A,2C2E2] | e4 c2 | [B2B,2D2F2]>d2 c2 | B2 [A4A,4C4E4] |
A2 GA [B2B,2D2F2] | Bc BA GA | [B2E,2G,2B,2D2] c2 d2 | ed [c2A,2C2E2] B2 |
c2 d2 [e2A,2C2E2] | fe dc BA | [B2B,2D2F2] Bc BA | GA [B2E,2G,2B,2D2] c2 |
d2 cd [e2A,2C2E2] | c2 Bd cB | [A2A,2C2E2] A2 A2 | GA [B2B,2D2F2] Bc |
BA GA [B2E,2G,2B,2D2] | c2 d2 ed | [c2A,2C2E2] B2 c2 | d2 [e2A,2C2E2] fe |
dc BA [B2B,2D2F2] | Bc BA GA | [B2E,2G,2B,2D2] c2 d2 | cd [e2A,2C2E2] c2 |
Bd cB [A2A,2C2E2] | A2 A2 GA | [B2B,2D2F2] Bc BA | GA [B2E,2G,2B,2D2] c2 |
d2 ed [c2A,2C2E2] | B2 c2 d2 | [e2A,2C2E2] fe dc | BA [B2B,2D2F2] Bc |
BA GA [B2E,2G,2B,2D2] | c2 d2 cd | [e2A,2C2E2] c2 Bd | cB [A2A,2C2E2] A2 |
A2 GA [B2B,2D2F2] | Bc BA GA | [B2E,2G,2B,2D2] c2 d2 | ed [c2A,2C2E2] B2 |
c2 d2 [e2A,2C2E2] | fe dc BA | [B2B,2D2F2] Bc BA | GA [B2E,2G,2B,2D2] c2 |
d2 cd [e2A,2C2E2] | c2 Bd cB | [A2A,2C2E2] A2 A2 |


